X:146
T:Hommage \`a Jimmy de Genova
C:Philippe Bruneau
Z:robin.beech@mcgill.ca
S:Sylvain Rondeau
M:3/4
L:1/8
K:Edor
|:f2df Bd | F2-FF Bd | fF Bd gd | fd df Bd | f2 df Bd | F2- FF Bd | fF Bd gf | ge ee Be |
g2 eg Be | G2-GG Be | gG Be ae | ge eg Be | g2 eg Be | G2- GF cd | e2 ce dc |1 dB BG GF :|2 dB BF FF |: 
cF FF ce | dF FF Bd | cF FF cF | Bc de fF | cF FF ce | dF FF Bd | cF ce dc | .Bz .[Bb]z z2 ::
f2 df Bd | f2- fF GF | ff df Bd | f2- fF GF | ff df GF | ff df GF | ff df Bd | g4- gf | 
gg eg Be | g2- gF GF | gg eg Be | g2- gF GF | gg eg GF | gg eg GF | ee ce dc | dB BG GF ::
cF FF ce | dF FF Bd | cF FF cF | Bc de fF | cF FF ce | dF FF Bd | cF ce dc | .Bz .[Bb]z z2 ::
f2  df Bd | F2- FF Bc | dF Bc dB | ce Fc Fc | e2- ed ce | F2- FF cd | e2 ce dc |1 dB BG GF :|2 d2 B2 B2 |:
g2 eg eg | f2 df df | e2 ce ce | Bc de fd |g2eg eg | f2 df df | eF ce dc | .Bz .[Bb]z z2 :|

